humanity-icon-theme/Humanity/apps/128/accessories-dictionary.svg

<?xml version="1.0" encoding="UTF-8" standalone="no"?>
<!-- Created with Inkscape (http://www.inkscape.org/) -->
<svg
   xmlns:svg="http://www.w3.org/2000/svg"
   xmlns="http://www.w3.org/2000/svg"
   xmlns:xlink="http://www.w3.org/1999/xlink"
   version="1.0"
   width="128"
   height="128"
   id="svg4175">
  <defs
     id="defs4177">
    <linearGradient
       id="linearGradient3287">
      <stop
         id="stop3289"
         style="stop-color:#000000;stop-opacity:1"
         offset="0" />
      <stop
         id="stop3291"
         style="stop-color:#000000;stop-opacity:0"
         offset="1" />
    </linearGradient>
    <linearGradient
       id="linearGradient2346">
      <stop
         id="stop2348"
         style="stop-color:#eeeeee;stop-opacity:1"
         offset="0" />
      <stop
         id="stop2350"
         style="stop-color:#d9d9da;stop-opacity:1"
         offset="1" />
    </linearGradient>
    <linearGradient
       id="linearGradient3211">
      <stop
         id="stop3213"
         style="stop-color:#ffffff;stop-opacity:1"
         offset="0" />
      <stop
         id="stop3215"
         style="stop-color:#ffffff;stop-opacity:0"
         offset="1" />
    </linearGradient>
    <linearGradient
       id="linearGradient2490">
      <stop
         id="stop2492"
         style="stop-color:#791235;stop-opacity:1"
         offset="0" />
      <stop
         id="stop2494"
         style="stop-color:#dd3b27;stop-opacity:1"
         offset="1" />
    </linearGradient>
    <linearGradient
       id="linearGradient5048">
      <stop
         id="stop5050"
         style="stop-color:#000000;stop-opacity:0"
         offset="0" />
      <stop
         id="stop5056"
         style="stop-color:#000000;stop-opacity:1"
         offset="0.5" />
      <stop
         id="stop5052"
         style="stop-color:#000000;stop-opacity:0"
         offset="1" />
    </linearGradient>
    <linearGradient
       id="linearGradient5060">
      <stop
         id="stop5062"
         style="stop-color:#000000;stop-opacity:1"
         offset="0" />
      <stop
         id="stop5064"
         style="stop-color:#000000;stop-opacity:0"
         offset="1" />
    </linearGradient>
    <linearGradient
       id="linearGradient3242-2">
      <stop
         id="stop3244"
         style="stop-color:#f8b17e;stop-opacity:1"
         offset="0" />
      <stop
         id="stop3246-9"
         style="stop-color:#e35d4f;stop-opacity:1"
         offset="0.31209752" />
      <stop
         id="stop3248-3"
         style="stop-color:#c6262e;stop-opacity:1"
         offset="0.57054454" />
      <stop
         id="stop3250-9"
         style="stop-color:#690b54;stop-opacity:1"
         offset="1" />
    </linearGradient>
    <radialGradient
       cx="17.949392"
       cy="25.435272"
       r="13.427935"
       fx="17.949392"
       fy="25.435272"
       id="radialGradient2454"
       xlink:href="#linearGradient2346"
       gradientUnits="userSpaceOnUse"
       gradientTransform="matrix(-1.9832843e-2,-4.5149276,7.128812,-2.7715666e-2,-91.208878,142.51545)" />
    <linearGradient
       x1="25.579119"
       y1="0.30611229"
       x2="25.579119"
       y2="42.257183"
       id="linearGradient2458"
       xlink:href="#linearGradient3211"
       gradientUnits="userSpaceOnUse"
       gradientTransform="matrix(2.7323977,0,0,2.7513978,-5.8923193,2.1577661)" />
    <radialGradient
       cx="38.810284"
       cy="15.690213"
       r="20.714195"
       fx="38.810284"
       fy="15.690213"
       id="radialGradient2462"
       xlink:href="#linearGradient3242-2"
       gradientUnits="userSpaceOnUse"
       gradientTransform="matrix(0.1259464,7.9667192,-11.803425,9.062367e-7,204.8525,-326.97901)" />
    <linearGradient
       x1="24.008854"
       y1="38.246284"
       x2="24.008854"
       y2="0.99999988"
       id="linearGradient2464"
       xlink:href="#linearGradient2490"
       gradientUnits="userSpaceOnUse"
       gradientTransform="matrix(2.7448245,0,0,2.7313022,-1.9000957,-1.5967333)" />
    <linearGradient
       x1="21.13592"
       y1="40.884956"
       x2="21.13592"
       y2="35.298134"
       id="linearGradient2468"
       xlink:href="#linearGradient2346"
       gradientUnits="userSpaceOnUse"
       gradientTransform="matrix(2.4681404,0,0,1.9664314,6.4673636,29.516054)" />
    <radialGradient
       cx="605.71429"
       cy="486.64789"
       r="117.14286"
       fx="605.71429"
       fy="486.64789"
       id="radialGradient3253"
       xlink:href="#linearGradient5060"
       gradientUnits="userSpaceOnUse"
       gradientTransform="matrix(-9.6388648e-2,0,0,8.2352941e-2,76.089646,75.805468)" />
    <radialGradient
       cx="605.71429"
       cy="486.64789"
       r="117.14286"
       fx="605.71429"
       fy="486.64789"
       id="radialGradient3256"
       xlink:href="#linearGradient5060"
       gradientUnits="userSpaceOnUse"
       gradientTransform="matrix(9.638865e-2,0,0,8.2352941e-2,51.910372,75.805468)" />
    <linearGradient
       x1="302.85715"
       y1="366.64789"
       x2="302.85715"
       y2="609.50507"
       id="linearGradient3260"
       xlink:href="#linearGradient5048"
       gradientUnits="userSpaceOnUse"
       gradientTransform="matrix(0.1905325,0,0,8.2352941e-2,-4.8639067,75.805468)" />
    <radialGradient
       cx="63"
       cy="107.00003"
       r="52.5"
       fx="63"
       fy="107.00003"
       id="radialGradient3295"
       xlink:href="#linearGradient3287"
       gradientUnits="userSpaceOnUse"
       gradientTransform="matrix(1.5810671,-2.1966087e-8,0,0.1904762,-36.607229,89.619043)" />
  </defs>
  <rect
     width="92"
     height="20"
     x="18"
     y="106"
     id="rect8877"
     style="opacity:0.40206185;fill:url(#linearGradient3260);fill-opacity:1;fill-rule:nonzero;stroke:none;stroke-width:1;marker:none;visibility:visible;display:inline;overflow:visible" />
  <path
     d="M 110,106.00069 C 110,106.00069 110,125.99959 110,125.99959 C 114.96378,126.03723 122,121.51885 122,115.99885 C 122,110.47885 116.46079,106.00069 110,106.00069 L 110,106.00069 z"
     id="path8879"
     style="opacity:0.40206185;fill:url(#radialGradient3256);fill-opacity:1;fill-rule:nonzero;stroke:none;stroke-width:1;marker:none;visibility:visible;display:inline;overflow:visible" />
  <path
     d="M 18,106.00069 C 18,106.00069 18,125.99959 18,125.99959 C 13.03622,126.03723 6,121.51885 6,115.99885 C 6,110.47885 11.539202,106.00069 18,106.00069 L 18,106.00069 z"
     id="path8881"
     style="opacity:0.40206185;fill:url(#radialGradient3253);fill-opacity:1;fill-rule:nonzero;stroke:none;stroke-width:1;marker:none;visibility:visible;display:inline;overflow:visible" />
  <path
     d="M 117.50012,119.50013 L 14.223761,119.50013 C 13.265712,119.50013 12.494432,118.62843 12.494432,117.54563 L 10.499873,102.45439 C 10.499873,101.37158 11.271154,100.49988 12.229202,100.49988 L 117.38721,100.49988"
     id="rect8840"
     style="fill:url(#linearGradient2468);fill-opacity:1;fill-rule:nonzero;stroke:#7a1235;stroke-width:0.99974561;stroke-linecap:round;stroke-linejoin:round;marker:none;stroke-miterlimit:4;stroke-dasharray:none;stroke-dashoffset:0.06;stroke-opacity:1;visibility:visible;display:inline;overflow:visible;enable-background:accumulate" />
  <path
     d="M 117.4599,118.49653 C 117.4599,118.49653 114.95015,108.03141 116.51385,102"
     id="path9017"
     style="fill:none;stroke:#666666;stroke-width:0.99974561;stroke-linecap:round;stroke-linejoin:miter;stroke-miterlimit:4;stroke-dasharray:none;stroke-opacity:1" />
  <path
     d="M 17.560736,2.4998727 C 16.585526,2.4998727 15.82641,3.6088949 15.826412,5.0138897 L 10.499873,98.986107 C 10.499873,100.39111 11.334393,101.50014 12.309602,101.50013 L 115.69039,101.50013 C 116.66561,101.50014 117.50012,100.39111 117.50012,98.986107 L 111.54331,5.0138897 C 111.54331,3.6088949 110.78419,2.4998727 109.80898,2.4998727 L 17.560736,2.4998727 L 17.560736,2.4998727 z"
     id="rect8064"
     style="fill:url(#radialGradient2462);fill-opacity:1;fill-rule:nonzero;stroke:url(#linearGradient2464);stroke-width:0.99974555;stroke-linecap:round;stroke-linejoin:round;marker:none;stroke-miterlimit:4;stroke-dasharray:none;stroke-dashoffset:0.06;stroke-opacity:1;visibility:visible;display:inline;overflow:visible;enable-background:accumulate" />
  <path
     d="M 13.592249,118.45911 L 11.490826,102.46519"
     id="path3267"
     style="opacity:0.3;fill:none;stroke:#000000;stroke-width:0.99974561px;stroke-linecap:square;stroke-linejoin:miter;stroke-opacity:1" />
  <path
     d="M 18.789468,3.4998756 C 17.782667,3.4998756 16.998961,4.6481527 16.998962,6.1028781 L 11.499873,97.897114 C 11.499873,99.351844 12.361429,100.50013 13.368228,100.50013 L 114.63178,100.50013 C 115.63857,100.50013 116.50012,99.351844 116.50012,97.897114 L 110.35034,6.1028781 C 110.35034,4.6481527 109.56664,3.4998756 108.55984,3.4998756 L 18.789468,3.4998756 L 18.789468,3.4998756 z"
     id="path2868"
     style="opacity:0.4;fill:none;stroke:url(#linearGradient2458);stroke-width:0.99974567;stroke-linecap:round;stroke-linejoin:round;marker:none;stroke-miterlimit:4;stroke-dasharray:none;stroke-dashoffset:0.06;stroke-opacity:1;visibility:visible;display:inline;overflow:visible;enable-background:accumulate" />
  <path
     d="M 38.102948,52.246356 C 43.327162,52.246356 48.551382,52.246356 53.775598,52.246356 C 51.16349,45.721528 48.551382,39.1967 45.939272,32.671866 C 43.327162,39.1967 40.715056,45.721528 38.102948,52.246356 L 38.102948,52.246356 z M 26.033862,67.161564 C 26.164368,66.256376 25.78041,64.855244 26.210848,64.239176 C 27.400716,64.239176 28.590574,64.239176 29.780438,64.239176 C 34.852124,51.492784 39.923808,38.746392 44.995492,26.000002 C 46.597078,26.000002 48.198664,26.000002 49.800248,26.000002 C 54.881466,38.746392 59.962684,51.492784 65.043906,64.239176 C 66.445288,64.239176 67.846676,64.239176 69.248064,64.239176 C 69.117556,65.144362 69.501502,66.545492 69.071076,67.161564 C 63.953518,67.161564 58.83596,67.161564 53.7184,67.161564 C 53.848906,66.256376 53.464962,64.855244 53.895388,64.239176 C 55.418912,64.239176 56.94244,64.239176 58.465968,64.239176 C 57.274312,61.224888 56.082656,58.210602 54.890996,55.196312 C 48.904124,55.196312 42.917246,55.196312 36.930372,55.196312 C 35.738712,58.210602 34.54706,61.224888 33.355406,64.239176 C 34.918854,64.239176 36.48231,64.239176 38.045758,64.239176 C 37.915252,65.144362 38.299224,66.545492 37.86877,67.161564 C 33.923802,67.161564 29.97883,67.161564 26.033862,67.161564 L 26.033862,67.161564 z M 92.01344,57.953284 C 92.01344,55.885558 92.01344,53.81783 92.01344,51.750104 C 88.49733,51.888632 84.894608,51.37262 81.460798,52.26478 C 76.819092,53.63022 76.284902,60.2276 79.429558,63.2191 C 83.138468,66.531772 90.485542,65.207508 91.727872,60.143786 C 91.92913,59.431114 92.013556,58.69087 92.01344,57.953284 L 92.01344,57.953284 z M 97.27579,48.855284 C 97.27579,53.983248 97.27579,59.111208 97.27579,64.239176 C 98.839238,64.239176 100.40269,64.239176 101.96614,64.239176 C 101.83564,65.144362 102.21958,66.545492 101.78916,67.161564 C 98.530578,67.161564 95.272006,67.161564 92.01343,67.161564 C 92.01343,66.104724 92.01343,65.047888 92.01343,63.991046 C 88.248948,68.570488 80.80207,69.087686 75.784974,66.250254 C 70.037026,62.879832 70.177944,53.29542 76.399982,50.45638 C 81.24474,48.07168 86.785834,48.986092 92.01343,48.800142 C 92.158,45.957496 91.925058,42.608522 89.053792,41.004282 C 85.758224,39.210858 80.895284,39.17193 78.15864,41.935302 C 76.918446,43.6271 77.069024,45.99286 74.383276,45.243654 C 73.454124,45.095706 74.213076,43.320426 73.966998,42.514006 C 73.966998,41.44806 73.966998,40.382112 73.966998,39.316168 C 79.762662,36.938556 86.939776,35.792988 92.618258,39.057506 C 96.02625,41.132524 97.351614,45.139212 97.275776,48.85529 L 97.27579,48.855284 z"
     id="path3271"
     style="font-size:21.12489128px;font-style:normal;font-variant:normal;font-weight:normal;font-stretch:normal;fill:#7b1234;fill-opacity:1;stroke:none;font-family:Serif;-inkscape-font-specification:Serif" />
  <path
     d="M 38.102948,53.246355 C 43.327162,53.246355 48.551382,53.246355 53.775598,53.246355 C 51.16349,46.721527 48.551382,40.196699 45.939272,33.671865 C 43.327162,40.196699 40.715056,46.721527 38.102948,53.246355 L 38.102948,53.246355 z M 26.033862,68.161563 C 26.164368,67.256375 25.78041,65.855243 26.210848,65.239175 C 27.400716,65.239175 28.590574,65.239175 29.780438,65.239175 C 34.852124,52.492783 39.923808,39.746391 44.995492,27.000001 C 46.597078,27.000001 48.198664,27.000001 49.800248,27.000001 C 54.881466,39.746391 59.962684,52.492783 65.043906,65.239175 C 66.445288,65.239175 67.846676,65.239175 69.248064,65.239175 C 69.117556,66.144361 69.501502,67.545491 69.071076,68.161563 C 63.953518,68.161563 58.83596,68.161563 53.7184,68.161563 C 53.848906,67.256375 53.464962,65.855243 53.895388,65.239175 C 55.418912,65.239175 56.94244,65.239175 58.465968,65.239175 C 57.274312,62.224887 56.082656,59.210601 54.890996,56.196311 C 48.904124,56.196311 42.917246,56.196311 36.930372,56.196311 C 35.738712,59.210601 34.54706,62.224887 33.355406,65.239175 C 34.918854,65.239175 36.48231,65.239175 38.045758,65.239175 C 37.915252,66.144361 38.299224,67.545491 37.86877,68.161563 C 33.923802,68.161563 29.97883,68.161563 26.033862,68.161563 L 26.033862,68.161563 z M 92.01344,58.953283 C 92.01344,56.885557 92.01344,54.817829 92.01344,52.750103 C 88.49733,52.888631 84.894608,52.372619 81.460798,53.264779 C 76.819092,54.630219 76.284902,61.227599 79.429558,64.219099 C 83.138468,67.531771 90.485542,66.207507 91.727872,61.143785 C 91.92913,60.431113 92.013556,59.690869 92.01344,58.953283 L 92.01344,58.953283 z M 97.27579,49.855283 C 97.27579,54.983247 97.27579,60.111207 97.27579,65.239175 C 98.839238,65.239175 100.40269,65.239175 101.96614,65.239175 C 101.83564,66.144361 102.21958,67.545491 101.78916,68.161563 C 98.530578,68.161563 95.272006,68.161563 92.01343,68.161563 C 92.01343,67.104723 92.01343,66.047887 92.01343,64.991045 C 88.248948,69.570487 80.80207,70.087685 75.784974,67.250253 C 70.037026,63.879831 70.177944,54.295419 76.399982,51.456379 C 81.24474,49.071679 86.785834,49.986091 92.01343,49.800141 C 92.158,46.957495 91.925058,43.608521 89.053792,42.004281 C 85.758224,40.210857 80.895284,40.171929 78.15864,42.935301 C 76.918446,44.627099 77.069024,46.992859 74.383276,46.243653 C 73.454124,46.095705 74.213076,44.320425 73.966998,43.514005 C 73.966998,42.448059 73.966998,41.382111 73.966998,40.316167 C 79.762662,37.938555 86.939776,36.792987 92.618258,40.057505 C 96.02625,42.132523 97.351614,46.139211 97.275776,49.855289 L 97.27579,49.855283 z"
     id="text2537-9"
     style="font-size:21.12489128px;font-style:normal;font-variant:normal;font-weight:normal;font-stretch:normal;fill:url(#radialGradient2454);fill-opacity:1;stroke:none;font-family:Serif;-inkscape-font-specification:Serif" />
  <path
     d="M 14.559597,118.4188 L 12.458174,102.42488"
     id="path3246"
     style="opacity:0.15;fill:none;stroke:#000000;stroke-width:0.99974561px;stroke-linecap:square;stroke-linejoin:miter;stroke-opacity:1" />
  <path
     d="M 15.526945,118.45911 L 13.425522,102.46519"
     id="path3248"
     style="opacity:0.05;fill:none;stroke:#000000;stroke-width:0.99974561px;stroke-linecap:square;stroke-linejoin:miter;stroke-opacity:1" />
  <path
     d="M 11.5,103.5 L 115.5,103.5 M 11.5,105.5 L 115.5,105.5 M 11.5,107.5 L 115.5,107.5 M 11.5,109.5 L 115.5,109.5 M 11.5,111.5 L 115.5,111.5 M 11.5,113.5 L 115.5,113.5 M 11.5,115.5 L 115.5,115.5 M 11.5,117.5 L 115.5,117.5"
     id="path3262"
     style="opacity:0.1;fill:none;fill-rule:evenodd;stroke:url(#radialGradient3295);stroke-width:1px;stroke-linecap:butt;stroke-linejoin:miter;stroke-opacity:1" />
</svg>

<?xml version="1.0" encoding="UTF-8" standalone="no"?>
<!-- Created with Inkscape (http://www.inkscape.org/) -->
<svg id="svg4175" xmlns="http://www.w3.org/2000/svg" height="128" width="128" version="1.0" xmlns:xlink="http://www.w3.org/1999/xlink">
 <defs id="defs4177">
  <linearGradient id="linearGradient2346">
   <stop id="stop2348" style="stop-color:#eee" offset="0"/>
   <stop id="stop2350" style="stop-color:#d9d9da" offset="1"/>
  </linearGradient>
  <linearGradient id="linearGradient5060">
   <stop id="stop5062" offset="0"/>
   <stop id="stop5064" style="stop-opacity:0" offset="1"/>
  </linearGradient>
  <radialGradient id="radialGradient2454" xlink:href="#linearGradient2346" gradientUnits="userSpaceOnUse" cy="25.435" cx="17.949" gradientTransform="matrix(-.019833 -4.5149 7.1288 -.027716 -91.209 142.52)" r="13.428"/>
  <linearGradient id="linearGradient2458" y2="42.257" gradientUnits="userSpaceOnUse" x2="25.579" gradientTransform="matrix(2.7324 0 0 2.7514 -5.8923 2.1578)" y1=".30611" x1="25.579">
   <stop id="stop3213" style="stop-color:#fff" offset="0"/>
   <stop id="stop3215" style="stop-color:#fff;stop-opacity:0" offset="1"/>
  </linearGradient>
  <radialGradient id="radialGradient2462" gradientUnits="userSpaceOnUse" cy="15.69" cx="38.81" gradientTransform="matrix(.12595 7.9667 -11.803 9.0624e-7 204.85 -326.98)" r="20.714">
   <stop id="stop3244" style="stop-color:#f8b17e" offset="0"/>
   <stop id="stop3246-9" style="stop-color:#e35d4f" offset=".31210"/>
   <stop id="stop3248-3" style="stop-color:#c6262e" offset=".57054"/>
   <stop id="stop3250-9" style="stop-color:#690b54" offset="1"/>
  </radialGradient>
  <linearGradient id="linearGradient2464" y2="1" gradientUnits="userSpaceOnUse" x2="24.009" gradientTransform="matrix(2.7448 0 0 2.7313 -1.9001 -1.5967)" y1="38.246" x1="24.009">
   <stop id="stop2492" style="stop-color:#791235" offset="0"/>
   <stop id="stop2494" style="stop-color:#dd3b27" offset="1"/>
  </linearGradient>
  <linearGradient id="linearGradient2468" y2="35.298" xlink:href="#linearGradient2346" gradientUnits="userSpaceOnUse" x2="21.136" gradientTransform="matrix(2.4681 0 0 1.9664 6.4674 29.516)" y1="40.885" x1="21.136"/>
  <radialGradient id="radialGradient3253" xlink:href="#linearGradient5060" gradientUnits="userSpaceOnUse" cy="486.65" cx="605.71" gradientTransform="matrix(-.096389 0 0 .082353 76.09 75.805)" r="117.14"/>
  <radialGradient id="radialGradient3256" xlink:href="#linearGradient5060" gradientUnits="userSpaceOnUse" cy="486.65" cx="605.71" gradientTransform="matrix(.096389 0 0 .082353 51.91 75.805)" r="117.14"/>
  <linearGradient id="linearGradient3260" y2="609.51" gradientUnits="userSpaceOnUse" x2="302.86" gradientTransform="matrix(.19053 0 0 .082353 -4.8639 75.805)" y1="366.65" x1="302.86">
   <stop id="stop5050" style="stop-opacity:0" offset="0"/>
   <stop id="stop5056" offset=".5"/>
   <stop id="stop5052" style="stop-opacity:0" offset="1"/>
  </linearGradient>
  <radialGradient id="radialGradient3295" gradientUnits="userSpaceOnUse" cy="107" cx="63" gradientTransform="matrix(1.5811 -2.1966e-8 0 .19048 -36.607 89.619)" r="52.5">
   <stop id="stop3289" offset="0"/>
   <stop id="stop3291" style="stop-opacity:0" offset="1"/>
  </radialGradient>
 </defs>
 <rect id="rect8877" style="opacity:.40206;fill:url(#linearGradient3260)" height="20" width="92" y="106" x="18"/>
 <path id="path8879" style="opacity:.40206;fill:url(#radialGradient3256)" d="m110 106v20c4.96 0.04 12-4.48 12-10s-5.54-10-12-10z"/>
 <path id="path8881" style="opacity:.40206;fill:url(#radialGradient3253)" d="m18 106v20c-4.964 0.04-12-4.48-12-10s5.539-10 12-10z"/>
 <path id="rect8840" style="stroke-linejoin:round;stroke-width:.99975;stroke-dashoffset:.06;stroke:#7a1235;stroke-linecap:round;fill:url(#linearGradient2468)" d="m117.5 119.5h-103.28c-0.954 0-1.726-0.87-1.726-1.95l-1.994-15.1c0-1.08 0.771-1.95 1.729-1.95h105.16"/>
 <path id="path9017" style="stroke:#666;stroke-linecap:round;stroke-width:.99975;fill:none" d="m117.46 118.5s-2.51-10.47-0.95-16.5"/>
 <path id="rect8064" style="stroke-linejoin:round;stroke-width:.99975;stroke-dashoffset:.06;stroke:url(#linearGradient2464);stroke-linecap:round;fill:url(#radialGradient2462)" d="m17.561 2.4999c-0.975 0-1.735 1.109-1.735 2.514l-5.326 93.972c0 1.404 0.834 2.514 1.81 2.514h103.38c0.98 0 1.81-1.11 1.81-2.514l-5.96-93.972c0-1.4051-0.76-2.5141-1.73-2.5141h-92.249z"/>
 <path id="path3267" style="opacity:.3;stroke:#000;stroke-linecap:square;stroke-width:.99975px;fill:none" d="m13.592 118.46l-2.101-15.99"/>
 <path id="path2868" style="opacity:.4;stroke-linejoin:round;stroke-width:.99975;stroke-dashoffset:.06;stroke:url(#linearGradient2458);stroke-linecap:round;fill:none" d="m18.789 3.4999c-1.006 0-1.79 1.1483-1.79 2.603l-5.499 91.794c0 1.455 0.861 2.603 1.868 2.603h101.26c1.01 0 1.87-1.148 1.87-2.603l-6.15-91.794c0-1.4548-0.78-2.6031-1.79-2.6031h-89.771z"/>
 <path id="path3271" style="fill:#7b1234" d="m38.103 52.246h15.673c-2.613-6.524-5.225-13.049-7.837-19.574-2.612 6.525-5.224 13.05-7.836 19.574zm-12.069 14.916c0.13-0.906-0.254-2.307 0.177-2.923h3.569c5.072-12.746 10.144-25.493 15.215-38.239h4.805c5.081 12.746 10.163 25.493 15.244 38.239h4.204c-0.13 0.905 0.254 2.306-0.177 2.923h-15.353c0.131-0.906-0.253-2.307 0.177-2.923h4.571c-1.192-3.014-2.383-6.028-3.575-9.043h-17.961c-1.191 3.015-2.383 6.029-3.575 9.043h4.691c-0.131 0.905 0.253 2.306-0.177 2.923h-11.835zm65.979-9.209v-6.203c-3.516 0.139-7.118-0.377-10.552 0.515-4.642 1.365-5.176 7.963-2.031 10.954 3.708 3.313 11.056 1.989 12.298-3.075 0.201-0.713 0.286-1.453 0.285-2.191zm5.263-9.098v15.384h4.694c-0.13 0.905 0.25 2.306-0.18 2.923h-9.777v-3.171c-3.764 4.579-11.211 5.097-16.228 2.259-5.748-3.37-5.607-12.955 0.615-15.794 4.845-2.384 10.386-1.47 15.613-1.656 0.145-2.843-0.088-6.191-2.959-7.796-3.296-1.793-8.159-1.832-10.895 0.931-1.241 1.692-1.09 4.058-3.776 3.309-0.929-0.148-0.17-1.924-0.416-2.73v-3.198c5.796-2.377 12.973-3.523 18.651-0.258 3.408 2.075 4.734 6.081 4.658 9.797z"/>
 <path id="text2537-9" style="fill:url(#radialGradient2454)" d="m38.103 53.246h15.673c-2.613-6.524-5.225-13.049-7.837-19.574-2.612 6.525-5.224 13.05-7.836 19.574zm-12.069 14.916c0.13-0.906-0.254-2.307 0.177-2.923h3.569c5.072-12.746 10.144-25.493 15.215-38.239h4.805c5.081 12.746 10.163 25.493 15.244 38.239h4.204c-0.13 0.905 0.254 2.306-0.177 2.923h-15.353c0.131-0.906-0.253-2.307 0.177-2.923h4.571c-1.192-3.014-2.383-6.028-3.575-9.043h-17.961c-1.191 3.015-2.383 6.029-3.575 9.043h4.691c-0.131 0.905 0.253 2.306-0.177 2.923h-11.835zm65.979-9.209v-6.203c-3.516 0.139-7.118-0.377-10.552 0.515-4.642 1.365-5.176 7.963-2.031 10.954 3.708 3.313 11.056 1.989 12.298-3.075 0.201-0.713 0.286-1.453 0.285-2.191zm5.263-9.098v15.384h4.694c-0.13 0.905 0.25 2.306-0.18 2.923h-9.777v-3.171c-3.764 4.579-11.211 5.097-16.228 2.259-5.748-3.37-5.607-12.955 0.615-15.794 4.845-2.384 10.386-1.47 15.613-1.656 0.145-2.843-0.088-6.191-2.959-7.796-3.296-1.793-8.159-1.832-10.895 0.931-1.241 1.692-1.09 4.058-3.776 3.309-0.929-0.148-0.17-1.924-0.416-2.73v-3.198c5.796-2.377 12.973-3.523 18.651-0.258 3.408 2.075 4.734 6.081 4.658 9.797z"/>
 <path id="path3246" style="opacity:.15;stroke:#000;stroke-linecap:square;stroke-width:.99975px;fill:none" d="m14.56 118.42l-2.102-16"/>
 <path id="path3248" style="opacity:.05;stroke:#000;stroke-linecap:square;stroke-width:.99975px;fill:none" d="m15.527 118.46l-2.101-15.99"/>
 <path id="path3262" style="opacity:.1;stroke:url(#radialGradient3295);stroke-width:1px;fill:none" d="m11.5 103.5h104m-104 2h104m-104 2h104m-104 2h104m-104 2h104m-104 2h104m-104 2h104m-104 2h104"/>
</svg>
